src/img/icons/brands/instagram.svg

<svg width="448" height="512" viewBox="0 0 448 512" fill="none" xmlns="http://www.w3.org/2000/svg">
<g clip-path="url(#clip0_361_160)">
<path d="M224.1 141C160.5 141 109.2 192.3 109.2 255.9C109.2 319.5 160.5 370.8 224.1 370.8C287.7 370.8 339 319.5 339 255.9C339 192.3 287.7 141 224.1 141ZM224.1 330.6C183 330.6 149.4 297.1 149.4 255.9C149.4 214.7 182.9 181.2 224.1 181.2C265.3 181.2 298.8 214.7 298.8 255.9C298.8 297.1 265.2 330.6 224.1 330.6V330.6ZM370.5 136.3C370.5 151.2 358.5 163.1 343.7 163.1C328.8 163.1 316.9 151.1 316.9 136.3C316.9 121.5 328.9 109.5 343.7 109.5C358.5 109.5 370.5 121.5 370.5 136.3ZM446.6 163.5C444.9 127.6 436.7 95.7999 410.4 69.5999C384.2 43.3999 352.4 35.2 316.5 33.4C279.5 31.3 168.6 31.3 131.6 33.4C95.7998 35.1 63.9998 43.2999 37.6998 69.5C11.3998 95.7 3.2998 127.5 1.4998 163.4C-0.600195 200.4 -0.600195 311.3 1.4998 348.3C3.1998 384.2 11.3998 416 37.6998 442.2C63.9998 468.4 95.6998 476.6 131.6 478.4C168.6 480.5 279.5 480.5 316.5 478.4C352.4 476.7 384.2 468.5 410.4 442.2C436.6 416 444.8 384.2 446.6 348.3C448.7 311.3 448.7 200.5 446.6 163.5V163.5ZM398.8 388C391 407.6 375.9 422.7 356.2 430.6C326.7 442.3 256.7 439.6 224.1 439.6C191.5 439.6 121.4 442.2 91.9998 430.6C72.3998 422.8 57.2998 407.7 49.3998 388C37.6998 358.5 40.3998 288.5 40.3998 255.9C40.3998 223.3 37.7998 153.2 49.3998 123.8C57.1998 104.2 72.2998 89.0999 91.9998 81.1999C121.5 69.4999 191.5 72.1999 224.1 72.1999C256.7 72.1999 326.8 69.5999 356.2 81.1999C375.8 88.9999 390.9 104.1 398.8 123.8C410.5 153.3 407.8 223.3 407.8 255.9C407.8 288.5 410.5 358.6 398.8 388Z" fill="white"/>
</g>
<defs>
<clipPath id="clip0_361_160">
<rect width="448" height="512" fill="white"/>
</clipPath>
</defs>
</svg>

<svg xmlns="http://www.w3.org/2000/svg" viewBox="0 0 448 512"><!--! Font Awesome Pro 6.1.1 by @fontawesome - https://fontawesome.com License - https://fontawesome.com/license (Commercial License) Copyright 2022 Fonticons, Inc. --><path d="M224.1 141c-63.6 0-114.9 51.3-114.9 114.9s51.3 114.9 114.9 114.9S339 319.5 339 255.9 287.7 141 224.1 141zm0 189.6c-41.1 0-74.7-33.5-74.7-74.7s33.5-74.7 74.7-74.7 74.7 33.5 74.7 74.7-33.6 74.7-74.7 74.7zm146.4-194.3c0 14.9-12 26.8-26.8 26.8-14.9 0-26.8-12-26.8-26.8s12-26.8 26.8-26.8 26.8 12 26.8 26.8zm76.1 27.2c-1.7-35.9-9.9-67.7-36.2-93.9-26.2-26.2-58-34.4-93.9-36.2-37-2.1-147.9-2.1-184.9 0-35.8 1.7-67.6 9.9-93.9 36.1s-34.4 58-36.2 93.9c-2.1 37-2.1 147.9 0 184.9 1.7 35.9 9.9 67.7 36.2 93.9s58 34.4 93.9 36.2c37 2.1 147.9 2.1 184.9 0 35.9-1.7 67.7-9.9 93.9-36.2 26.2-26.2 34.4-58 36.2-93.9 2.1-37 2.1-147.8 0-184.8zM398.8 388c-7.8 19.6-22.9 34.7-42.6 42.6-29.5 11.7-99.5 9-132.1 9s-102.7 2.6-132.1-9c-19.6-7.8-34.7-22.9-42.6-42.6-11.7-29.5-9-99.5-9-132.1s-2.6-102.7 9-132.1c7.8-19.6 22.9-34.7 42.6-42.6 29.5-11.7 99.5-9 132.1-9s102.7-2.6 132.1 9c19.6 7.8 34.7 22.9 42.6 42.6 11.7 29.5 9 99.5 9 132.1s2.7 102.7-9 132.1z"/></svg>
